!!!!SEGMENT: pl-kk--kk-i-371--001_anonim--illustre-sidus-coelitus.krn
!!!cenid: 17xx:2058
!!!COM: Anonim
!!!COM-rismID: pe30004985
!!!CDT:
!!!CNT:
!!!OTL: Illustre Sidus coelitus
!!!PDT:
!!!AGN: Sacred
!!!SMS-siglum: PL-Kk
!!!SMS-shelfmark: Kk.I.371
!!!SMS-shelfwork: 001 W
!!!SMS-variant:
!!!SMS-altvar:
!!!NIFC-rismSourceID: 1001143607
!!!NIFC-rismChildID: 1001143609
!!!NIFC-islandoraID: pl-kk:6073
!!!URL-pdf-islandora: https://repozytorium.nifc.pl/islandora/object/pl-kk%3A6073/datastream/PDF/view
!!!URL-scan: https://polish.musicsources.pl/pl/lokalizacje/galeria/rekopisy/5984 @EN{Scan on Polish Music Sources Website} @PL{Skany w portalu Dziedzictwo Muzyki Polskiej w otwartym dostępie}
!!!IIIF:
!!!ONB-nifc: UWAGA: utwory w zbiorze: 1. Illustre Sidus coelitus, 2. Antra deserti teneris sub annis, 3. Omni die dic Mariae
!!!AIN: 1 alto 1 bass 1 soprn 1 tenor
!!!key: F
**kern	**text	**text	**kern	**text	**text	**kern	**text	**text	**kern	**text	**text
*part4	*part4	*part4	*part3	*part3	*part3	*part2	*part2	*part2	*part1	*part1	*part1
*staff4	*staff4	*staff4	*staff3	*staff3	*staff3	*staff2	*staff2	*staff2	*staff1	*staff1	*staff1
*I"[Basso]	*	*	*I"[Tenore]	*	*	*I"[Alto]	*	*	*I"[Canto]	*	*
*I'B	*	*	*I'T	*	*	*I'A	*	*	*I'S	*	*
*Ibass	*	*	*Itenor	*	*	*Ialto	*	*	*Isoprn	*	*
*ICvox	*	*	*ICvox	*	*	*ICvox	*	*	*ICvox	*	*
*clefF4	*	*	*clefC4	*	*	*clefC3	*	*	*clefC1	*	*
*k[b-]	*	*	*k[b-]	*	*	*k[b-]	*	*	*k[b-]	*	*
*F:	*	*	*F:	*	*	*F:	*	*	*F:	*	*
*M3/2	*	*	*M3/2	*	*	*M3/2	*	*	*M3/2	*	*
=1	=1	=1	=1	=1	=1	=1	=1	=1	=1	=1	=1
!	!	!	!	!	!	!	!	!	!LO:TX:t=P:problem=problem #302	!	!
*	*v:1	*v:3	*	*v:1	*v:3	*	*v:1	*v:3	*	*v:1	*v:3
2F\	Il-	Pijs	2c\	Il-	Pijs	2a\	Il-	Pijs	2f/	Il-	Pijs
!	!	!	!	!	!	!LO:N:vis=2	!	!	!	!	!
2E\	-lu-	a-	2.c\	-lu-	a-	2.g\	-lu-	a-	2.cc\	-lu-	a-
2E\	-ſtre	-dor-	.	.	.	.	.	.	.	.	.
.	.	.	4c\	-ſtre	-dor-	4g\	-ſtre	-dor-	4b-\	-ſtre	.
=2	=2	=2	=2	=2	=2	=2	=2	=2	=2	=2	=2
2.F\	Sy-	.	1c	Sy-	.	1f	Sy-	.	(<2.a\	Sy-	-dor-
4E\	.	.	.	.	.	.	.	.	4g/)	.	.
4D\	.	.	2c\	-dus	-nat	2f\	-dus	-nat	2f/	-d(us)	-nat
4C/	.	.	.	.	.	.	.	.	.	.	.
=3	=3	=3	=3	=3	=3	=3	=3	=3	=3	=3	=3
4BB-/	.	.	(2d\	cae-	i-	2f\	cae-	i-	(2dd\	Cae-	i-
4AA/	.	.	.	.	.	.	.	.	.	.	.
2GG/	-dus	-nat	2.B-\)	.	.	2.g\	.	.	2.ee\)	.	.
4.G\	cae-	i-	.	.	.	.	.	.	.	.	.
.	.	.	4G\	-li-	-gni-	4g\	-li-	-gni-	4ee\	-li-	-gni-
8G\	-li-	-gni-	.	.	.	.	.	.	.	.	.
=4	=4	=4	=4	=4	=4	=4	=4	=4	=4	=4	=4
1.F	-tu(s)	-b(us)	1.c	-tu(s)	-b(us)	1.a	-tu(s)	-b(us)	1ff	-tu(s)	-b(us)
.	.	.	.	.	.	.	.	.	2r	.	.
=5	=5	=5	=5	=5	=5	=5	=5	=5	=5	=5	=5
2F\	ful-	ti-	2A/	ful-	Tu-	4a\	ful	Ti	2cc\	ful	Ti
.	.	.	.	.	.	4f\	.	.	.	.	.
!	!	!	!	!	!	!LO:TX:b:t=-cru(m) ruentis Patri[ae] De[o] dicata Victi-	!	!	!LO:TX:b:t=-crum ruentis Patriae Deo dicata Victi-	!	!
!	!	!	!	!	!	!LO:TX:b:t=-bi Sacrata Altaria plauſ(us) perennes Conci-	!	!	!LO:TX:b:t=-bi Sacrata altaria plauſ(us) perennes Conci-	!	!
!	!	!	!	!	!	!LO:TX:t=P:problem=defekt źródła [brak nut i tekstu] w tt. nr 5-11	!	!	!LO:TX:t=P:problem=defekt źródła [brak nut] w tt. nr 5-11	!	!
2D/	-cru(m)	-bi	2A/	-cru(m)	-a	2ryy	.	.	2ryy	.	.
2D/	ru-	Sa-	2F/	ru-	Sa-	2ryy	.	.	2ryy	.	.
=6	=6	=6	=6	=6	=6	=6	=6	=6	=6	=6	=6
1G	-en	-cra	2G/	-en	-cra	1.ryy	.	.	1.ryy	.	.
!	!	!	!LO:TX:b:t=-ta Al-	!	!	!	!	!	!	!	!
!	!	!	!LO:TX:b:t=-tis	!	!	!	!	!	!	!	!
!	!	!	!LO:TX:t=P:problem=defekt źródła [brak nut] w tt. nr 6-13	!	!	!	!	!	!	!	!
.	.	.	2ryy	.	.	.	.	.	.	.	.
!LO:TX:b:t=-tis [Patriae] deo	!	!	!	!	!	!	!	!	!	!	!
!LO:TX:b:t=-ta Altar[ia] plau-	!	!	!	!	!	!	!	!	!	!	!
!LO:TX:t=P:problem=defekt źródła [brak nut i tekstu] w tt. nr 6-9	!	!	!	!	!	!	!	!	!	!	!
2ryy	.	.	2ryy	.	.	.	.	.	.	.	.
=7	=7	=7	=7	=7	=7	=7	=7	=7	=7	=7	=7
1.ryy	.	.	2ryy	.	.	1.ryy	.	.	1.ryy	.	.
.	.	.	2.c\	Pa-	ta-	.	.	.	.	.	.
.	.	.	4d\	-tri	-ri	.	.	.	.	.	.
=8	=8	=8	=8	=8	=8	=8	=8	=8	=8	=8	=8
!	!	!	!LO:TX:b:t=-ae deo dicata Victima de-	!	!	!	!	!	!	!	!
!	!	!	!LO:TX:b:t=-a plauſ(us) perenneſ Concinit lau-	!	!	!	!	!	!	!	!
1.ryy	.	.	1.ryy	.	.	1.ryy	.	.	1.ryy	.	.
=9	=9	=9	=9	=9	=9	=9	=9	=9	=9	=9	=9
2ryy	.	.	1.ryy	.	.	1.ryy	.	.	1.ryy	.	.
2ryy	.	.	.	.	.	.	.	.	.	.	.
2GG/	di-	ſ(us)	.	.	.	.	.	.	.	.	.
=10	=10	=10	=10	=10	=10	=10	=10	=10	=10	=10	=10
!LO:N:xstem	!	!	!	!	!	!	!	!	!	!	!
2C/	-ca-	pe-	1.ryy	.	.	1.ryy	.	.	1.ryy	.	.
1D	.	-ren-	.	.	.	.	.	.	.	.	.
=11	=11	=11	=11	=11	=11	=11	=11	=11	=11	=11	=11
2C/	-ta	-nes	1.ryy	.	.	1.ryy	.	.	1.ryy	.	.
2.D/	Vi-	con-	.	.	.	.	.	.	.	.	.
4DD/	-cti-	-ci-	.	.	.	.	.	.	.	.	.
=12	=12	=12	=12	=12	=12	=12	=12	=12	=12	=12	=12
1GG,<	-ma	-nit	1.ryy	.	.	1.d	ma	nit	1g	ma	nit
4G\	De-	lau-	.	.	.	.	.	.	2r	.	.
4F\	.	.	.	.	.	.	.	.	.	.	.
=13	=13	=13	=13	=13	=13	=13	=13	=13	=13	=13	=13
2E\	.	.	2ryy	.	.	2g\	de-	lau-	2cc\	De-	lau-
2F\	-cus	-ros	2.c\	-c(us)	-ros	2a\	-c(us)	-ros	2f/	-c(us)	-ros
2AA/	q(ue)	ad-	.	.	.	4f\	q(ue)	a-	2f/	q(ue)	a-
.	.	.	4c\	q(ue)	a-	4e\	.	.	.	.	.
=14	=14	=14	=14	=14	=14	=14	=14	=14	=14	=14	=14
2.BB-/	Sa-	-au-	2d\	Sa-	-dau-	2.d\	Sa-	-dau-	1b-	Sa-	-dau-
.	.	.	1d	-crae	-gens	.	.	.	.	.	.
4C/	.	.	.	.	.	4e\	.	.	.	.	.
2D/	.	.	.	.	.	2f\	-crae	-gens	2a\	-crae	-gens
=15	=15	=15	=15	=15	=15	=15	=15	=15	=15	=15	=15
2BB-/	-crae	-gens	2d\	pur-	Lau-	1f	pur-	Lau-	1g	Pur-	lau-
2.C/	pur-	lau-	2.c\	.	.	.	.	.	.	.	.
.	.	.	.	.	.	2e\	-pu-	-re-	2g/	-pu-	-re-
4C/	-pu-	-re-	4B-\	-pu-	-re-	.	.	.	.	.	.
=16	=16	=16	=16	=16	=16	=16-	=16	=16	=16	=16	=16
1.FF;;	-rae.	-is.	1.A;;	-rae	-is.	1.f;;	-rae	-is.	1.f;;	-rae	-is.
!!LO:LB:g=original
=17||	=17||	=17||	=17||	=17||	=17||	=17||	=17||	=17||	=17||	=17||	=17||
*M2/2	*	*	*M2/2	*	*	*M2/2	*	*	*M2/2	*	*
*met(c|)	*	*	*met(c|)	*	*	*met(c|)	*	*	*met(c|)	*	*
*	*v:2	*v:5	*	*v:2	*v:5	*	*v:2	*v:5	*	*v:2	*v:5
2D/	Te	Hanc	2d\	Te	Hanc	2f#X\	Te	Hanc	2a\	Te	Hanc
4G\	Sta-	Tu	4d\	Sta-	Tu	4g\	Sta-	Tu	(8b-\L	Sta-	Tu
.	.	.	.	.	.	.	.	.	8cc\J)	.	.
!LO:TX:t=P:problem=# above	!	!	!	!	!	!	!	!	!	!	!
4F#X\	-ni-	be-	4d\	-ni-	be-	4a\	-ni-	be-	4dd\	.	be-
=18	=18	=18	=18	=18	=18	=18	=18	=18	=18	=18	=18
4G\	-sla-	-ni-	4d\	-sla-	-ni-	4b-\	-sla-	-ni-	4dd\	-ni-	-ni-
!	!	!	!	!	!	!	!	!	!LO:TX:t=P:problem=# above	!	!
4A\	-e	-gn(us)	4A/	-e	-gn(us)	4a\	-e	-gn(us)	4cc#X\	-slae	-gn(us)
4.B-\	Sup-	reſ-	4.F/	Sup-	reſ-	4.a\	Sup-	reſ-	4.dd\	Sup-	reſ-
8B-\	-pli-	-pi-	8G/	-pli-	-pi-	8g\	-pli-	-pi-	8dd\	-pli-	-pi-
=19	=19	=19	=19	=19	=19	=19	=19	=19	=19	=19	=19
2A\	-ci	-ce	2A\	-ci	-ce	2e\	-ci	-ce	2cc#X\	-ci	-ce
4F#X\	Vo-	Cae-	4A\	Vo-	Cae-	4a\	Vo-	Cae-	4dd\	Vo-	Cae-
4F#\	-to	-li	4d\	-to	-li	4a\	-to	-li	(8dd\L	-to	-li
!	!	!	!	!	!	!	!	!	!LO:SIC:v:s=8cc\J	!	!
.	.	.	.	.	.	.	.	.	8cc#\J)	.	.
=20	=20	=20	=20	=20	=20	=20	=20	=20	=20	=20	=20
4G\	co-	fa-	2d\	co-	fa-	2g\	co-	fa-	4b-\	co-	fa-
4G\	-lit	-uo-	.	.	.	.	.	.	4b-\	-lit	-uo-
(4E\	Po-	-res	8c\L	-lit	-uo-	4g\	-lit	-uo-	2cc\	Po-	-res
.	.	.	8B-\J	.	.	.	.	.	.	.	.
4F\)	.	.	8A-X/L	Po-	-res	4a-X\	Po-	-res	.	.	.
.	.	.	8F/J	.	.	.	.	.	.	.	.
=21	=21	=21	=21	=21	=21	=21	=21	=21	=21	=21	=21
4BB-/	-lo-	Sug-	(4d-X\	-lo-	Sug-	4.g\	-lo-	Sug-	8b-\L	-lo-	Sug-
.	.	.	.	.	.	.	.	.	8a\J	.	.
8.C/	.	.	8.c\)	.	.	.	.	.	8.g/	.	.
.	.	.	.	.	.	8g\	-ni-	-ge-	.	.	.
16C/	-ni-	-ge-	16c\	-ni-	-ge-	.	.	.	16g/	-ni-	-ge-
4FF/	-a	-renſ	4c\	-a	-renſ	4f\	-a	-renſ	4a\	-a	-renſ
4F\	tu-	ac-	4A\	Tu-	Ac-	4a\	Tu-	ac-	4cc\	Tu-	ac-
=22	=22	=22	=22	=22	=22	=22	=22	=22	=22	=22	=22
!	!	!	!LO:TX:t=P:problem=# above	!	!	!	!	!	!	!	!
!	!	!	!LO:N:acc=#	!	!	!	!	!	!	!	!
4F\	-i	-cli-	4Bn\	-i	-cli-	4g\	-i	-cli-	4dd\	-i	-cli-
4E-X\	Sub	-ne	4c\	Sub	-ne	4g\	Sub	-ne	4ee-X\	Sub	-ne
!	!	!	!LO:TX:b:t=Umbra	!	!	!	!	!	!	!	!
!	!	!	!LO:TX:b:t=Numen	!	!	!	!	!	!	!	!
!	!	!	!LO:TX:t=P:problem=defekt źródła [brak nut i tekstu]	!	!	!	!	!	!	!	!
4D\	Um-	Nu-	2ryy	.	.	4f\	Um-	Nu-	4ff\	Um-	Nu-
(8E-X\L	-bra	-men	.	.	.	4g\	-bra	-men	4ee-X\	-bra	-men
8F\J)	.	.	.	.	.	.	.	.	.	.	.
=23	=23	=23	=23	=23	=23	=23	=23	=23	=23	=23	=23
8.G\	No-	ef-	8.B-\	No-	ef-	8.g\	No-	ef-	8.dd\	no-	ef-
16G\	-mi-	-fi-	16B-\	-mi-	-fi-	16g\	-mi-	-fi-	16dd\	-mi-	-fi-
4.G\	-nis	-ce	4.B-\	-nis	-ce	4.g\	-nis	-ce	4.dd\	-nis	-ce
!LO:N:acc=#	!	!	!	!	!	!	!	!	!	!	!
8BBn/	Se-	hoſ-	8B-\	Se-	Hoſ-	8d\	Se-	hoſ-	8dd\	Se-	hoſ-
8BB/	-cu-	-tis	8G/	-cu-	-tis	8.g\	-cu-	-tis	8.dd\	-cu-	-tis
8BB/	-ra	fu-	8G/	-ra	fu-	.	.	.	.	.	.
.	.	.	.	.	.	16f\	-ra	fu-	16dd\	-ra	fu-
=24	=24	=24	=24	=24	=24	=24	=24	=24	=24	=24	=24
4C/	ri-	-ro-	4G/	ri-	-ro-	4e\	ri-	-ro-	4cc\	ri-	-ro-
4.C/	-det	-res	4.G/	-det	-reſ	4.e\	-det	-res	4.cc\	-det	-res
*	*ij	*ij	*	*ij	*ij	*	*ij	*ij	*	*ij	*ij
8E\	Se-	hoſ-	8c\	Se-	Hoſ-	8g\	Se-	hoſ-	8g\	Se-	hoſ-
8E\	-cu-	-tis	8c\	-cu-	-tis	8.g\	-cu-	-tis	8.cc\	-cu-	-tis
8E\	-ra	fu-	8c\	-ra	fu-	.	.	.	.	.	.
.	.	.	.	.	.	16g\	-ra	fu-	16b-\	-ra	fu-
=25	=25	=25	=25	=25	=25	=25	=25	=25	=25	=25	=25
4F\	ri-	-ro-	4c\	ri-	-ro-	4f\	ri-	-ro-	4a\	ri-	-ro-
4.F\	-det	-res	4.c\	-det	-reſ	4.f\	-det	-res	4.a\	-det	-res
8A\	Se-	hoſ-	8A\	Se-	Hoſ-	8c\	Se-	hoſ-	8cc\	Se-	hoſ-
8AA/	-cu-	-tis	8A\	-cu-	-tis	8.f\	-cu-	-tis	8.cc\	-cu-	-tis
8AA/	-ra	fu-	8c\	-ra	fu-	.	.	.	.	.	.
.	.	.	.	.	.	16e\	-ra	fu-	16cc\	-ra	fu-
=26	=26	=26	=26	=26	=26	=26	=26	=26	=26	=26	=26
8BB-/L	ri-	-ro-	4B-\	ri-	-ro-	8d\L	ri-	-ro-	(8dd\L	ri-	-ro-
8C/J	.	.	.	.	.	8e\J	.	.	8cc\J)	.	.
4D/	-det	-res	4F/	-det	-reſ	4f\	-det	-res	4.b-\	-det	-res
*	*Xij	*Xij	*	*Xij	*Xij	*	*Xij	*Xij	*	*Xij	*Xij
4.C/	im-	Sub-	4.c\	Im-	Sub-	8e\	.	.	.	.	.
.	.	.	.	.	.	[8f\	im-	Sub-	8a\	.	.
.	.	.	.	.	.	8.f\]	.	.	8.g/	im-	Sub-
8C/	-pe-	-mo-	8c\	-pe-	-mo-	.	.	.	.	.	.
.	.	.	.	.	.	16e\	-pe-	-mo-	16g/	-pe-	-mo-
=27	=27	=27	=27	=27	=27	=27	=27	=27	=27	=27	=27
1FF;<	-t(us)	-venſ.	1A;;	-t(us)	-venſ.	1f;;	-t(us)	-venſ.	1f;;	-t(us)	-venſ.
!!LO:LB:g=original
=28||	=28||	=28||	=28||	=28||	=28||	=28||	=28||	=28||	=28||	=28||	=28||
*M3/2	*	*	*M3/2	*	*	*M3/2	*	*	*M3/2	*	*
*	*v:4	*v:6	*	*v:4	*v:6	*	*v:4	*v:6	*	*v:4	*v:6
2BB-/	Tu-	Non	2B-\	Tu-	Non	2f\	Tu-	Non	2dd\	Tu-	Non
2AA/	-i	bel-	2c\	-i	bel-	2f\	-i	bel-	2cc\	-i	bel-
2GG/	cru-	-la	2d\	cru-	-la	(4d\	Cru-	-la	2b-\	cru-	-la
.	.	.	.	.	.	4e\)	.	.	.	.	.
=29	=29	=29	=29	=29	=29	=29	=29	=29	=29	=29	=29
(2.FF/	-en-	Sae-	2A\	-en-	Sae-	1f	-en-	Sae-	4a\	-en-	Sae-
.	.	.	.	.	.	.	.	.	4g\	.	.
.	.	.	1c	-ta	-ria	.	.	.	4a\	.	.
4GG/)	.	.	.	.	.	.	.	.	4b-\	.	.
4AA/	-ta	-ria	.	.	.	2a\	-ta	-ria	4cc\	-ta	-ria
4BB-/	.	.	.	.	.	.	.	.	4dd\	.	.
=30	=30	=30	=30	=30	=30	=30	=30	=30	=30	=30	=30
2.C/	prae-	com-	2.c\	prae-	Com-	2.g\	prae-	com-	2.ee\	prae-	Com-
4C/	-li-	-pri-	4c\	-lij-	-pri-	4g\	-li-	-pri-	4ee\	-li-	-pri-
2C/	-a	-mant	2c\	-[a]	-mant	2g\	-a	-mant	2ee\	-a	-mant
=31	=31	=31	=31	=31	=31	=31	=31	=31	=31	=31	=31
2F\	pal-	le-	2c\	pal-	le-	2a\	Pal-	le-	2cc\	pal-	le-
2.E\	-maſ	-thi-	2.c\	-maſ	-thi-	2.g\	-maſ-	-thi-	2.cc\	-maſ-	-thi-
4F\	q(ue)	-q(ue)	4c\	q(ue)	-q(ue)	4a\	-q(ue)	-q(ue)	4cc\	-q(ue)	-q(ue)
=32	=32	=32	=32	=32	=32	=32	=32	=32	=32	=32	=32
*	*	*ij	*	*	*ij	*	*	*	*	*	*
2D\	Mar-	le-	2d\	Mar-	le-	2a\	Mar-	le-	2ff\	Mar-	le-
2.E\	.	-thi-	2.G/	.	-thi-	2.g\	.	-thi-	2.ee\	.	-thi-
4F\	-ty-	-q(ue)	4A/	-ty-	-q(ue)	4g\	-ty-	-q(ue)	4ee\	-ty-	-q(ue)
*	*	*Xij	*	*	*Xij	*	*	*	*	*	*
=33	=33	=33	=33	=33	=33	=33	=33	=33	=33	=33	=33
!	!	!	!LO:N:acc=#	!	!	!	!	!	!	!	!
2G\	-rij	uis	2Bn\	-rij	Vis	2g\	-rij	Vis	2dd\	-rij	Vis
(2A\	et	non	2c\	et	non	4e\	et	non	2cc\	et	non
.	.	.	.	.	.	8f\L	.	.	.	.	.
.	.	.	.	.	.	8g\J	.	.	.	.	.
2F\)	.	o-	1d	re-	o-	2a\	Re-	o-	[y2cc\	Re-	o-
=34	=34	=34	=34-	=34	=34	=34	=34	=34	=34	=34	=34
!	!	!	!	!	!	!	!	!	!LO:N:xstem:cue	!	!
2G\	re-	-bru-	.	.	.	2g\	.	-bru-	4cc\]	.	.
!	!	!	!	!	!	!	!	!	!LO:TX:t=P:problem=# above	!	!
!	!	!	!	!	!	!	!	!	!LO:N:acc=#	!	!
.	.	.	.	.	.	.	.	.	4bn\	.	-bru-
1C	-cem	-at	1e	-cem	-bru	1g	-cem	-at	1cc	-cem	-at
=35	=35	=35	=35	=35	=35	=35	=35	=35	=35	=35	=35
!	!	!	!LO:TX:b:t=colit	!	!	!	!	!	!	!	!
!	!	!	!LO:TX:b:t=-at tranquil	!	!	!	!	!	!	!	!
!	!	!	!LO:TX:t=P:problem=defekt źródła [brak nut i tekstu]	!	!	!	!	!	!	!	!
2C/	co-	tran-	1ryy	.	.	2e\	co-	tran-	2cc\	co-	tran-
2D/	-lit	-quil-	.	.	.	2f\	-lit	-quil-	2b-\	-lit	-quil-
2E\	tri-	-lae	2c\	tri-	lae	2g\	tri-	-lae	2b-\	tri-	-lae
=36	=36	=36	=36	=36	=36	=36	=36	=36	=36	=36	=36
1F	-um-	pa-	1c	-um-	pa-	(2f\	-um-	pa-	2.a\	-um-	pa-
.	.	.	.	.	.	2g\)	.	.	.	.	.
.	.	.	.	.	.	.	.	.	4b-\	.	.
2AA/	-pho	-cis-	2c\	-pho	-cis-	2a\	-pho	-cis-	4cc\	-pho	-cis-
.	.	.	.	.	.	.	.	.	4dd\	.	.
=37	=37	=37	=37	=37	=37	=37	=37	=37	=37	=37	=37
2.C/	ſplen-	-o-	2.c\	ſplen-	-o-	2.g\	ſplen-	-o-	2.ee\	ſplen-	-o-
4BB-/	-di-	-ti-	4c\	-di-	-ti-	4g\	-di-	-ti-	4ee\	-di-	-ti-
2AA/	-do	-a	2c\	-do	-a	2a\	-do	-a	2ff\	-do	-a
=38	=38	=38	=38	=38	=38	=38	=38	=38	=38	=38	=38
2BB-/	et	Sub-	2F/	et	Sub-	2f\	et	Sub-	2dd\	et	Sub-
2BB-/	Vi-	-mil-	2B-\	Vi-	-mil-	2f\	Vi-	-mil-	2dd\	Vi-	-mil-
2BB-/	-ctas	-te	2B-\	-ctas	-te	2f\	-ctas	-te	2dd\	-ctas	-te
=39	=39	=39	=39	=39	=39	=39	=39	=39	=39	=39	=39
2.AA/	Bo-	prom-	(2.c\	Bo-	prom-	1f	Bo-	prom-	1cc	Bo-	prom-
4GG/	.	.	4B-\)	.	.	.	.	.	.	.	.
4FF/	.	.	(4A\	-le-	.	2f\	-le-	.	2cc\	-le-	.
4GG/	.	.	4B-\)	.	.	.	.	.	.	.	.
=40	=40	=40	=40	=40	=40	=40	=40	=40	=40	=40	=40
2.AA/	-le-	-pt(us)	1c	-ſla-	pt(us)	1f	-ſla-	-pt(us)	2.cc\	-ſla-	-pt(us)
8BB-/L	-sla-	.	.	.	.	.	.	.	4b-\	.	.
8C/J	.	.	.	.	.	.	.	.	.	.	.
2D/	-i	Le-	2F/	-i	Le-	2f\	-i	Le-	2a\	-i	Le-
=41	=41	=41	=41	=41	=41	=41	=41	=41	=41	=41	=41
2BB-/	mi-	-ctri-	2d\	Mi-	-ctri-	1f	Mi-	.	1.g	mi-	-ctri-
1C	.	.	1c	.	.	.	.	.	.	.	.
.	.	.	.	.	.	2e\	.	-ctri-	.	.	.
=42	=42	=42	=42	=42	=42	=42	=42	=42	=42-	=42	=42
1.FF;;	-nas	-ae.	1.c;;	-nas.	-ae.	1.f	-nas.	-ae.	1.a;;	-nas.	-ae
==	==	==	==	==	==	==	==	==	==	==	==
*-	*-	*-	*-	*-	*-	*-	*-	*-	*-	*-	*-
!!!system-decoration: [(*)]
!!!RDF**kern: > = above
!!!RDF**kern: < = below
!!!ENC: Andrzej Kubiczek
!!!END: 2021-12-05
!!!ENC: Andrzej Kubiczek
!!!END: 2022-01-29
!!!YEC: Copyright 2022 Narodowy Instytut Fryderyka Chopina (https://polishscores.org)
!!!YEM: License CC-BY-4.0 (https://creativecommons.org/licenses/by/4.0)
